X: 39
T: Bisdot Beit Lechem
C: Naomi Shemer 1960
M: 2/4
L: 1/8
Q: 1/4=100
K: Cm
%MIDI gchord fzfz
|:"Cm"C2 G,C  |"Gm"DEDC|"Cm"E4-   |E2 (3DEF|\
  "Gm"G3 F    |E2D2    |"Cm" EDC2-|C4      :: "Fm"FzFz|FG/_A/GF|
  "Cm"_AB/c/BA|_AGGF   |G2F/G/A   |G3F     |G3F       |\
  E2D2        |[1EFG2- |G2z2      :|[2EDC2-|C4        |



